!!!!SEGMENT: pl-wtm--r-992-2_krogulski-jozef-wladyslaw--ziemi-wszechtworow.krn
!!!cenid: 18xx:2081
!!!COM: Krogulski, Józef Władysław
!!!COM-rismID: pe30001797
!!!CDT: 1815/10/04-1842/01/09
!!!CNT: Polish
!!!OTL: Ziemi wszechtworów
!!!PDT:
!!!AGN: Secular
!!!SMS-siglum: PL-Wtm
!!!SMS-shelfmark: R 992/2
!!!SMS-shelfwork: W
!!!SMS-variant:
!!!SMS-altvar:
!!!NIFC-rismSourceID: 1001083925
!!!NIFC-islandoraID:
!!!URL-pdf-islandora:
!!!URL-scan:
!!!ONB-nifc: UWAGA: w zbiorze 1. Fantaisie et vatiations (do skanu 0032) i 2. Ziemi wszechtworów (skan 0033)
!!!AIN: 1 piano 1 vox
!!!key: G
**kern	**kern	**dynam	**kern	**text
*part2	*part2	*part2	*part1	*part1
*group2	*group2	*	*group1	*
*staff3	*staff2	*	*staff1	*staff1
*Ipiano	*Ipiano	*	*Ivox	*
*ICklav	*ICklav	*	*ICvox	*
*IGacmp	*IGacmp	*	*IGsolo	*
*I"[Pianoforte]	*I"[Pianoforte]	*	*I"[Voce]	*
*mI"Pianoforte	*mI"Pianoforte	*	*mI"Voce	*
*I'	*I'	*	*I'	*
*mI'pf	*mI'pf	*	*mI'V	*
*clefF4	*clefG2	*	*clefG2	*
*k[f#]	*k[f#]	*	*k[f#]	*
*G:	*G:	*	*G:	*
*M3/4	*M3/4	*	*M3/4	*
*>[A,B,B1,B,B2,C]	*>[A,B,B1,B,B2,C]	*	*>[A,B,B1,B,B2,C]	*
=1	=1	=1	=1	=1
!!LO:TX:t=P:problem=tekst w wersji modern: za wyd. Dzieła J. U. Niemcewicza, t. 1, Kraków 1883, s. 216-217.
*>A	*>A	*	*>A	*
*	*tremolo	*	*	*
2.r	16g/LL	pp	2.ryy	.
.	16g/	.	.	.
.	16g/	.	.	.
.	16g/	.	.	.
.	16g/	.	.	.
.	16g/	.	.	.
.	16g/	.	.	.
.	16g/	.	.	.
.	16g/	.	.	.
.	16g/	.	.	.
.	16g/	.	.	.
.	16g/JJ	.	.	.
=2	=2	=2	=2	=2
*	*rep	*	*	*
8d#XL 8B\	16g/LL	.	2.ryy	.
.	16g/	.	.	.
8eJ 8c\	16g/	.	.	.
.	16g/	.	.	.
4r	16g/	.	.	.
.	16g/	.	.	.
.	16g/	.	.	.
.	16g/	.	.	.
4r	16g/	.	.	.
.	16g/	.	.	.
.	16g/	.	.	.
.	16g/JJ	.	.	.
*	*Xrep	*	*	*
=3	=3	=3	=3	=3
*	*rep	*	*	*
8c#XL 8A#X\	16g/LL	.	2.ryy	.
.	16g/	.	.	.
8dJ 8B\	16g/	.	.	.
.	16g/	.	.	.
4r	16g/	.	.	.
.	16g/	.	.	.
.	16g/	.	.	.
.	16g/	.	.	.
4r	16g/	.	.	.
.	16g/	.	.	.
.	16g/	.	.	.
.	16g/JJ	.	.	.
*	*Xrep	*	*	*
*	*Xtremolo	*	*	*
=4	=4	=4	=4	=4
4e 4cn\	16a/LL	.	2.ryy	.
.	16g#X/	.	.	.
.	16b/	.	.	.
.	16a/JJ	.	.	.
4r	16g#/LL	.	.	.
.	16a/	.	.	.
.	16cc/	.	.	.
.	16dd/JJ	.	.	.
!LO:TX:t=P:korekta:problem	!	!	!	!
4A 4E 4C\	16ff#/LL	.	.	.
.	16ee/	.	.	.
.	16cc/	.	.	.
.	16a/JJ	.	.	.
=5	=5	=5	=5	=5
4c 4A 4D\	16g/LL	.	2.ryy	.
.	16f#/	.	.	.
.	16b/	.	.	.
.	16a/JJ	.	.	.
4r	16g#X/LL	.	.	.
.	16a/	.	.	.
.	16gn/	.	.	.
.	16f#/JJ	.	.	.
4D\	16e#X/LL	.	.	.
.	16f#/	.	.	.
.	16en/	.	.	.
.	16d/JJ	.	.	.
=6	=6	=6	=6	=6
*tremolo	*	*	*	*
(16GG/LL	4d 4B/	.	2.ryy	.
16FF#/	.	.	.	.
16GG/	.	.	.	.
16FF#/	.	.	.	.
16GG/	4g 4d 4B/	.	.	.
16FF#/	.	.	.	.
16GG/	.	.	.	.
16FF#/	.	.	.	.
16GG/	8.f#L 8.d/	.	.	.
16FF#/	.	.	.	.
16GG/	.	.	.	.
16FF#/JJ)	16eJk 16c/	.	.	.
=7	=7	=7	=7	=7
*	*^	*	*	*
*rep	*	*	*	*	*
(16GG/LL	8dL 8B/	4ryyyy	.	2.ryy	.
16FF#/	.	.	.	.	.
16GG/	8c#XJ 8A#X/	.	.	.	.
16FF#/	.	.	.	.	.
16GG/	4cn/	8An\L	.	.	.
16FF#/	.	.	.	.	.
16GG/	.	16.G\L	.	.	.
16FF#/	.	.	.	.	.
.	.	32F#\JJk	.	.	.
16GG/	8d/L	8E\L	.	.	.
16FF#/	.	.	.	.	.
16GG/	8c/J	8D\J	.	.	.
16FF#/JJ)	.	.	.	.	.
*Xrep	*	*	*	*	*
*	*v	*v	*	*	*
*	*mclefF4	*	*	*
=8	=8	=8	=8	=8
*rep	*clefF4	*	*	*
(16GG/LL	4B 4G\	.	2.ryy	.
16FF#/	.	.	.	.
16GG/	.	.	.	.
16FF#/	.	.	.	.
16GG/	4B 4G\	.	.	.
16FF#/	.	.	.	.
16GG/	.	.	.	.
16FF#/	.	.	.	.
16GG/	8.dL 8.F#\	.	.	.
16FF#/	.	.	.	.
16GG/	.	.	.	.
16FF#/JJ)	16cJk 16E\	.	.	.
*Xrep	*	*	*	*
=9	=9	=9	=9	=9
*	*^	*	*	*
*rep	*	*	*	*	*
(16GG/LL	8BL 8D\	4ryyyy	.	2.ryy	.
16FF#/	.	.	.	.	.
16GG/	8A#XJ 8C#X\	.	.	.	.
16FF#/	.	.	.	.	.
16GG/	8An/L	4.Cn\	.	.	.
16FF#/	.	.	.	.	.
16GG/	16G/L	.	.	.	.
16FF#/	16F#/JJ	.	.	.	.
16GG/	8E/L	.	.	.	.
16FF#/	.	.	.	.	.
16GG/	8F#/J	8C\	.	.	.
16FF#/JJ)	.	.	.	.	.
*Xrep	*	*	*	*	*
=10	=10	=10	=10	=10	=10
*rep	*	*	*	*	*
(16GG/LL	4.G 4.BB/	2ryyyy	.	2.ryy	.
16FF#/	.	.	.	.	.
16GG/	.	.	.	.	.
16FF#/	.	.	.	.	.
16GG/	.	.	.	.	.
16FF#/	.	.	.	.	.
16GG/	8G 8BB/	.	.	.	.
16FF#/	.	.	.	.	.
16GG/	8E/L	4C\	.	.	.
16FF#/	.	.	.	.	.
16GG/	8F#/J	.	.	.	.
16FF#/JJ)	.	.	.	.	.
*Xrep	*	*	*	*	*
=11	=11	=11	=11	=11	=11
*rep	*rep	*rep	*	*	*
(16GG/LL	4.G 4.BB/	2ryyyy	.	2.ryy	.
16FF#/	.	.	.	.	.
16GG/	.	.	.	.	.
16FF#/	.	.	.	.	.
16GG/	.	.	.	.	.
16FF#/	.	.	.	.	.
16GG/	8G 8BB/	.	.	.	.
16FF#/	.	.	.	.	.
16GG/	8E/L	4C\	.	.	.
16FF#/	.	.	.	.	.
16GG/	8F#/J	.	.	.	.
16FF#/JJ)	.	.	.	.	.
*Xrep	*Xrep	*Xrep	*	*	*
*Xtremolo	*	*	*	*	*
*	*v	*v	*	*	*
!!LO:LB:g=original
=12	=12	=12	=12	=12
16GG/LL	8G 8D 8BB\	.	2.r	.
16FF#/	.	.	.	.
16GG/	8r	.	.	.
16EE/JJ	.	.	.	.
16DD/LL	8G 8D 8BB\	.	.	.
16CC#X/	.	.	.	.
16DD/	8r	.	.	.
16CCn/JJ	.	.	.	.
16BBB/LL	8G 8D 8BB\	.	.	.
16AAA#X/	.	.	.	.
16BBB/	8r	.	.	.
16AAAn/JJ	.	.	.	.
=13	=13	=13	=13	=13
2GGG/	2G 2D 2BB\	.	2.r	.
4r	4r	.	.	.
!	!LO:MO:mod=!null:null	!	!	!
!	!LO:CL:ed	!	!	!
*	*clefG2	*	*	*
=14!|:	=14!|:	=14!|:	=14!|:	=14!|:
*>B	*>B	*	*>B	*
16GG/LL	2b 2g 2d/	.	2b/	Zie-
16FF#/	.	.	.	.
16GG/	.	.	.	.
16FF#/JJ	.	.	.	.
16GG/LL	.	.	.	.
16AA/	.	.	.	.
16BB/	.	.	.	.
16C/JJ	.	.	.	.
8D\L	8.aL 8.f# 8.c/	.	8.a/	-mio
8D#X\J	.	.	.	.
.	16bJk 16f# 16B/	.	16b/	wszech
=15	=15	=15	=15	=15
4E\	4a 4f# 4B/	.	4a/	two-
8E\	8g 8e 8B/	.	8g/	-rów
8r	8r	.	8r	.
4D/	4b 4g#X 4e/	.	4b/	i
=16	=16	=16	=16	=16
!LO:TX:t=P:korekta:problem	!LO:TX:t=P:korekta:problem	!	!LO:TX:t=P:korekta:problem	!
2C/	2ee 2a 2e/	.	[4ee/	mat-
!	!	!	!LO:TX:t=P:korekta:problem	!
.	.	.	8ee/L]	.
!	!	!	!LO:TX:t=P:korekta:problem	!
.	.	.	16ff#/L	.
.	.	.	16ee/JJ	.
!	!LO:TX:t=P:korekta:problem	!	!	!
8AA/L	8ccL 8a 8e/	.	16dd/LL	-ko
.	.	.	16cc/JJ	.
8C/J	8aJ 8e 8c/	.	16b/LL	i
.	.	.	16a/JJ	.
=17	=17	=17	=17	=17
4D/	4g 4d 4B/	.	4g/	gro-
!	!	!	!	!LO:MO:mod=-bie,
8DD/L	4f# 4d 4A/	.	4f#/	-bie
8D/	.	.	.	.
8C#X/	4r	.	4r	.
8D/J	.	.	.	.
=18	=18	=18	=18	=18
*	*^	*	*	*
4D#X\	4b/	4a 4f#\	.	4b/	To
!	!	!	!	!LO:SIC:s=8cc/L	!
4E\	8cc/L	4g 4e\	.	(<8cc/L	ziar-
!	!	!	!	!LO:SIC:s=8b/J	!
.	8b/J	.	.	8b/J)	.
!	!	!	!	!LO:TX:t=P:korekta:problem	!
!	!	!	!	!LO:SIC:s=8cc/L	!
4D#\	8cc/L	4a 4f#\	.	(<8cc/L	-no
!	!	!	!	!LO:TX:t=P:korekta:problem	!
!	!	!	!	!LO:SIC:s=8b/J	!
.	8b/J	.	.	8b/J)	.
*	*v	*v	*	*	*
=19	=19	=19	=19	=19
!	!	!	!	!LO:MO:mod=kę-
4E\	2gg 2b 2g\	.	4.gg\	Kę-
!LO:TX:t=P:problem=mixed beam	!	!	!	!
8EE/L	.	.	.	.
8E\	.	.	8b/	-dy
!	!	!	!LO:TX:t=P:problem=korekta tekstu	!
8F#\	8ff#L 8dd#X 8a\	.	8ff#/	le-
8G\J	8eeJ 8b\	.	8ee/	-dwie
=20	=20	=20	=20	=20
16A\LL	2dd 2a 2f#\	.	2dd/	ży-
16G#X\	.	.	.	.
16B\	.	.	.	.
16A\JJ	.	.	.	.
16G#\LL	.	.	.	.
16A\	.	.	.	.
16F#\	.	.	.	.
16D\JJ	.	.	.	.
16AA/LL	4cc#X 4a 4e\	.	4cc#X/	-cie
16GGn/	.	.	.	.
16FF#/	.	.	.	.
16EE/JJ	.	.	.	.
=21	=21	=21	=21	=21
4DD/	4ee 4cc#X 4g\	.	4ee\	tle-
8D\L	4dd 4f#\	.	4dd\	-je
8C#X\	.	.	.	.
!LO:TX:t=P:korekta:problem	!	!	!	!
8D\	4r	.	4r	.
8C#\J	.	.	.	.
!!LO:LB:g=original
=22	=22	=22	=22	=22
*^	*^	*	*	*
4r	4D\	4dd/	8ccL 8a\	.	4dd\	Przy-
.	.	.	8b 8g#X\	.	.	.
!	!	!LO:TX:t=P:korekta:problem	!	!	!	!
4r	4D\	4dd/	8a 8f#\	.	4dd\	-szłych
!	!	!LO:TX:t=P:korekta:problem	!	!	!	!
.	.	.	8gnJ 8e\	.	.	.
!	!	!LO:TX:t=P:korekta:problem	!	!	!	!
8d/L	4D\	4dd/	8f#\L	.	4dd\	o-
8c/J	.	.	8e\J	.	.	.
*v	*v	*	*	*	*	*
*	*v	*v	*	*	*
=23	=23	=23	=23	=23
!	!	!	!LO:SIC:s=8dd\L	!
4B 4D\	4dd 4d\	.	(>8dd\L	-wo-
!	!	!	!LO:SIC:s=8gg\J	!
.	.	.	8gg\J)	.
4G 4D\	4b 4d\	.	4dd\	-ców
4G 4D\	4b 4d\	.	8r	.
.	.	.	8b\	i
=24	=24	=24	=24	=24
*	*^	*	*	*
!	!	!	!	!LO:SIC:s=8dd\L	!
4F# 4D\	8b/L	4d\	.	(>8dd\L	cie-
!	!	!	!	!LO:SIC:s=8cc\J	!
.	8a/J	.	.	8cc\J)	.
!LO:TX:t=P:korekta:problem	!	!	!	!	!
4F# 4D\	4a/	4d\	.	4cc\	-nia
4G 4D\	4g/	4d\	.	4b\	na-
*	*v	*v	*	*	*
=25	=25	=25	=25	=25
!	!LO:TX:t=P:korekta:problem	!	!	!
4d 4D\	4b 4g/	.	4b/	-dzie-
!LO:TX:t=P:korekta:problem	!	!	!	!
8D\L	4a 4f# 4d/	.	4a/	-je
8C\	.	.	.	.
8BB\	4r	.	4r	.
8AA\J	.	.	.	.
=26	=26	=26	=26	=26
2.GG/	4b 4g/	.	(>4b\	Po-
.	4a 4f#/	.	4cc\	.
.	4b 4fn/	.	4dd\)	.
=27	=27	=27	=27	=27
2.C/	2cc 2g 2e/	.	2ee\	-wie-
.	4a 4e 4c/	.	8cc\L	-rzam
.	.	.	8a\J	.
=28	=28	=28	=28	=28
*^	*^	*	*	*
!	!	!	!	!	!	!LO:MO:mod=to-
4B/	2D\	2g/	4d\	.	(<2g/	To-
4A#X/	.	.	4c#X\	.	.	.
!	!	!LO:TX:t=P:korekta:problem	!	!	!	!
4An/	4F#\	4d/	4cn\	.	4a/)	.
*	*	*v	*v	*	*	*
=29	=29	=29	=29	=29	=29
!	!	!	!	!LO:TX:t=P:korekta:problem	!LO:MO:mod=-bie,
4G/	8G\L	2d 2B/	.	2b\	-bie
.	8BB\	.	.	.	.
4r	8C\	.	.	.	.
.	8D\	.	.	.	.
4r	8E\	4r	.	4r	.
.	8F#\J	.	.	.	.
=30	=30	=30	=30	=30	=30
*	*	*^	*	*	*
!LO:SIC:s=(4B/	!	!	!	!	!	!
4B/	2.G\	(4dd/	2.g\	.	(>4dd\	Po-
4c/	.	4ee/	.	.	4ee\	.
!LO:SIC:s=4d/)	!	!	!	!	!	!
4d/	.	4ff#/)	.	.	4ff#\)	.
*v	*v	*	*	*	*	*
*	*v	*v	*	*	*
=31	=31	=31	=31	=31
!LO:TX:t=P:korekta:problem	!	!	!	!
2g> 2e 2c\	4.gg/	.	(>4.gg\	-wie-
.	8ee/L	.	8ee\)	.
!	!	!	!LO:SIC:s=8cc\L	!
8e>\L	8cc/J	.	(>8cc\L	-rzam
!	!LO:N:vis=4	!	!LO:SIC:s=8a\J	!
8e>\J	8a/	.	8a\J)	.
=32	=32	=32	=32	=32
*^	*^	*	*	*
!	!	!	!	!	!	!LO:MO:mod=to-
4B/	2D\	2g/	4d\	.	(<2g/	To-
4A#X/	.	.	4c#X\	.	.	.
!	!	!	!	!	!	!LO:MO:mod=.
4An/	4D\	4f#/	4cn\	.	4f#/)	[[bie]]-
*	*	*v	*v	*	*	*
=33	=33	=33	=33	=33	=33
!	!	!LO:TX:t=P:korekta:problem	!	!LO:TX:t=P:korekta:problem	!LO:MO:mod=-bie.
4G/	4GG\	8gL 8B/	.	2g/	-bie
.	.	8d 8B/	.	.	.
4r	4ryy	8c#X 8A#X/	.	.	.
.	.	8d 8B/	.	.	.
4r	4ryy	8e 8cn/	.	4r	.
.	.	8G/J	.	.	.
*v	*v	*	*	*	*
*	*mclefF4	*	*	*
=34	=34	=34	=34	=34
*	*clefF4	*	*	*
*	*^	*	*	*
4D\	8c/L	8A\L	.	2.r	.
.	8B/	8G\	.	.	.
4D\	8A/	8F#\	.	.	.
.	8G#X/J	8E#X\J	.	.	.
4D\	8A/L	8F#\L	.	.	.
.	8c/J	16En\L	.	.	.
.	.	16F#\JJ	.	.	.
*	*v	*v	*	*	*
!!LO:LB:g=original
=35	=35	=35	=35	=35
8GG/L	4B 4G\	.	2.ryy	.
8C#X/	.	.	.	.
8E/	4r	.	.	.
8D/	.	.	.	.
8BB/	4r	.	.	.
8GG/J	.	.	.	.
*	*mclefG2	*	*	*
=36	=36	=36	=36	=36
*	*^	*	*	*
*	*clefG2	*	*	*	*
!LO:TX:t=P:korekta:problem	!	!	!	!	!
4DD/	8aL 8c/	2ryyyy	.	2.ryy	.
.	8g 8B/	.	.	.	.
4D\	8f# 8A/	.	.	.	.
.	8e#XJ 8G#X/	.	.	.	.
4D\	8f#/L	8A\L	.	.	.
.	16en/L	8cn\J	.	.	.
.	16f#/JJ	.	.	.	.
*	*v	*v	*	*	*
=37	=37	=37	=37	=37
*tremolo	*	*	*	*
!	!LO:TX:t=P:korekta:problem	!	!	!
(16GG/LL	4g 4B/	.	2.ryy	.
16FF#/	.	.	.	.
16GG/	.	.	.	.
16FF#/	.	.	.	.
16GG/	4g 4d 4B/	.	.	.
16FF#/	.	.	.	.
16GG/	.	.	.	.
16FF#/	.	.	.	.
16GG/	8.f#L 8.d/	.	.	.
16FF#/	.	.	.	.
16GG/	.	.	.	.
16FF#/JJ)	16eJk 16c/	.	.	.
*Xtremolo	*	*	*	*
!!LO:MO:ori
=38	=38	=38	=38	=38
!	!LO:TX:t=P:problem=szlaczek. powtórka taktu?	!	!	!
2.ryy	2.ryy	.	2.ryy	.
!!LO:MO:end
*	*mclefF4	*	*	*
=39||	=39||	=39||	=39||	=39||
!LO:MO:mod=!null:null	!	!	!	!
!LO:TX:a:t=No 1.	!	!	!	!
*>B1	*>B1	*	*>B1	*
*	*clefF4	*	*	*
2GGG/	2G 2D 2BB\	.	2.ryy	.
4r	4r	.	.	.
=40:|!	=40:|!	=40:|!	=40:|!	=40:|!
!LO:MO:mod=!null:null	!	!	!	!
!LO:TX:a:t=No 2.	!	!	!	!
*>B2	*>B2	*	*>B2	*
2GGG/	2G 2D 2BB\	.	2.ryy	.
4r	4r	.	.	.
*	*mclefG2	*	*	*
=41	=41	=41	=41	=41
*>C	*>C	*	*>C	*
*8ba	*clefG2	*	*	*
4GG\	4gg 4dd 4b 4g\	.	2.ryy	.
!	!LO:MO:mod=*null:null	!	!	!
*	*head:invis	*	*	*
4DD\	4gg 4dd 4b 4g\	.	.	.
4BBB\	4gg 4dd 4b 4g\	.	.	.
=42	=42	=42	=42	=42
*	*Xhead	*	*	*
4GGG/	4gg 4dd 4b 4g\	.	2.ryy	.
4r	4r	.	.	.
4r	4r	.	.	.
=43	=43	=43	=43	=43
4GGG/	4bb 4gg 4dd 4b\	.	2.ryy	.
4r	4r	.	.	.
4r	4r	.	.	.
=44	=44	=44	=44	=44
!	!	!	!LO:SIC:s=2.r;	!
2GGG;/	2gg 2dd 2b 2g;\	.	2.ryy	.
4r	4r	.	.	.
!!LO:PB:g=original
==	==	==	==	==
*-	*-	*-	*-	*-
!!!system-decoration: g1[(g2)]
!!!system-decoration-mod: g1{(g2)}
!!!RDF**kern: < = below
!!!RDF**kern: > = above
!!!filter-modern: sic -sq | autostem -r | tie -s | shed -e "s/t=P:/T=P:/L" | shed -k -e "s/([^a-gA-Gn#X-])[<>]/$1/g" | shed -e "s/^(X?)rep$/$1REP/I" | shed -e "s/yy//" | modori -m
!!!ENC: Marta Chmielewska
!!!END: 2021-05-26
!!!ENC: Katarzyna Serwa
!!!END: 2021-05-12
!!!ENC-modern: Katarzyna Serwa
!!!END-modern: 2022-07-11
!!!YEC: Copyright 2022 Narodowy Instytut Fryderyka Chopina (https://polishscores.org)
!!!YEM: Licence CC BY 4.0 (https://creativecommons.org/licenses/by/4.0)
